!!!!SEGMENT: pl-wtm--r-704-m--013_moniuszko-stanislaw--widma-no-7.krn
!!!cenid: 18xx:3068
!!!COM: Moniuszko, Stanisław
!!!COM-rismID:
!!!CDT: 1819/05/05-1872/06/04
!!!CNT: Polish
!!!GTL: Widma
!!!OTL: No. 7
!!!OMV: 013
!!!PDT: 1852
!!!AGN: Secular
!!!SMS-siglum: PL-Wtm
!!!SMS-shelfmark: R 704/M
!!!SMS-shelfwork: G
!!!SMS-variant:
!!!SMS-altvar:
!!!NIFC-rismSourceID: 1001093778
!!!NIFC-islandoraID:
!!!URL-pdf-islandora:
!!!URL-scan:
!!!ONB-nifc: UWAGA: skany 0047-0048. Nie wpisywać tekstu rosyjskiego i samodzielnych dialogów poza krótkimi didaskaliami.
!!!AIN: 1 alto 3 empty 1 soprn 1 tenor
!!!key:
**kern	**kern	**dynam	**kern	**text	**text	**dynam	**kern	**text	**text	**dynam	**kern	**text	**text	**dynam	**kern	**text	**text	**dynam	**kern	**text	**text	**dynam
*	*	*	*	*	*	*	*group1	*	*	*	*group1	*	*	*	*group1	*	*	*	*group1	*	*	*
*part6	*part6	*part6	*part5	*part5	*part5	*	*part4	*part4	*part4	*part4	*part3	*part3	*part3	*part3	*part2	*part2	*part2	*part2	*part1	*part1	*part1	*part1
*staff7	*staff6	*	*staff5	*staff5	*staff5	*	*staff4	*staff4	*staff4	*	*staff3	*staff3	*staff3	*	*staff2	*staff2	*staff2	*	*staff1	*staff1	*staff1	*
*	*	*	*	*	*	*	*I""Chór / Coro	*	*	*	*I""Chór / Coro	*	*	*	*I""Chór / Coro	*	*	*	*I""Chór / Coro	*	*	*
*Iempty	*Iforte	*	*Iempty	*	*	*	*Iempty	*	*	*	*Itenor	*	*	*	*Ialto	*	*	*	*Isoprn	*	*	*
*	*I"Forte piano._	*	*I"Guślarz/L'incantatore	*	*	*	*I"Bassi_	*	*	*	*I"Tenori.	*	*	*	*I"Alto_	*	*	*	*I"Soprani	*	*	*
*clefF4	*clefG2	*	*clefF4	*	*	*	*clefF4	*	*	*	*clefG	*	*	*	*clefG2	*	*	*	*clefG2	*	*	*
*	*	*	*	*	*	*	*	*	*	*	*ITrd8c12	*	*	*	*	*	*	*	*	*	*	*
*k[b-e-]	*k[b-e-]	*	*k[b-e-]	*	*	*	*k[b-e-]	*	*	*	*k[b-e-]	*	*	*	*k[b-e-]	*	*	*	*k[b-e-]	*	*	*
*g:	*g:	*	*g:	*	*	*	*g:	*	*	*	*g:	*	*	*	*g:	*	*	*	*g:	*	*	*
*M4/4	*M4/4	*	*M4/4	*	*	*	*M4/4	*	*	*	*M4/4	*	*	*	*M4/4	*	*	*	*M4/4	*	*	*
*met(c)	*met(c)	*	*met(c)	*	*	*	*met(c)	*	*	*	*met(c)	*	*	*	*met(c)	*	*	*	*met(c)	*	*	*
=1	=1	=1	=1	=1	=1	=1	=1	=1	=1	=1	=1	=1	=1	=1	=1	=1	=1	=1	=1	=1	=1	=1
*	*	*^	*	*	*	*	*	*	*	*	*	*	*	*	*	*	*	*	*	*	*	*
*2\right	*	*	*	*	*	*	*	*	*	*	*	*	*	*	*	*	*	*	*	*	*	*	*
!	!LO:TX:b:i:t=Widmo	!	!	!	!	!	!	!	!	!	!	!	!	!	!	!	!	!	!	!	!	!	!
!	!LO:TX:a:t=Lo spettro:color=red	!LO:DY:rj:t=pp.	!LO:DY:b=2:rj:t=pp.	!	!	!	!	!	!	!	!	!	!	!	!	!	!	!	!	!	!	!	!
2B-\ 2G;<\	2g/ 2d;/	pp	pp	1ryy	.	.	.	1ryy	.	.	.	1ryy	.	.	.	1ryy	.	.	.	1ryy	.	.	.
(>2B-\ 2E-;<\	2b-/ 2g;/	.	.	.	.	.	.	.	.	.	.	.	.	.	.	.	.	.	.	.	.	.	.
*	*	*v	*v	*	*	*	*	*	*	*	*	*	*	*	*	*	*	*	*	*	*	*	*
!!LO:LB:g=original
=2	=2	=2	=2	=2	=2	=2	=2	=2	=2	=2	=2	=2	=2	=2	=2	=2	=2	=2	=2	=2	=2	=2
*^	*^	*	*	*	*	*	*	*	*	*	*	*	*	*	*	*	*	*	*	*	*	*
*	*	*	*2\right	*	*	*	*	*	*	*	*	*	*	*	*	*	*	*	*	*	*	*	*	*
4B-/)	2C\	(2ee-/	(2.g\	.	1ryy	.	.	.	1ryy	.	.	.	1ryy	.	.	.	1ryy	.	.	.	1ryy	.	.	.
2.A;/	.	.	.	.	.	.	.	.	.	.	.	.	.	.	.	.	.	.	.	.	.	.	.	.
.	(2D;\	(2dd;/)	.	.	.	.	.	.	.	.	.	.	.	.	.	.	.	.	.	.	.	.	.	.
.	.	.	4f#X;>\)	.	.	.	.	.	.	.	.	.	.	.	.	.	.	.	.	.	.	.	.	.
=3	=3	=3	=3	=3	=3	=3	=3	=3	=3	=3	=3	=3	=3	=3	=3	=3	=3	=3	=3	=3	=3	=3	=3	=3
!	!	!LO:TX:a:i:t=Lento:color=blue	!	!	!	!	!	!	!	!	!	!	!	!	!	!	!	!	!	!	!	!	!	!
2G/	4E-X\	(2.dd/)	2g\	.	1ryy	.	.	.	1ryy	.	.	.	1ryy	.	.	.	1ryy	.	.	.	1ryy	.	.	.
.	4En\	.	.	.	.	.	.	.	.	.	.	.	.	.	.	.	.	.	.	.	.	.	.	.
4c/	4F\	.	4a-X\	.	.	.	.	.	.	.	.	.	.	.	.	.	.	.	.	.	.	.	.	.
4e-\	4F#X\	4cc/	4an\	.	.	.	.	.	.	.	.	.	.	.	.	.	.	.	.	.	.	.	.	.
*v	*v	*	*	*	*	*	*	*	*	*	*	*	*	*	*	*	*	*	*	*	*	*	*	*
=4	=4	=4	=4	=4	=4	=4	=4	=4	=4	=4	=4	=4	=4	=4	=4	=4	=4	=4	=4	=4	=4	=4	=4
[2d\ [2G\)	[2b-/)	[2g\	.	1ryy	.	.	.	2ryy	.	.	.	2ryy	.	.	.	2ryy	.	.	.	2ryy	.	.	.
8d\] 8G\]	8b-/]	8g\]	.	.	.	.	.	8ryy	.	.	.	8ryy	.	.	.	8ryy	.	.	.	8ryy	.	.	.
!!LO:LB:g=original
=-	=-	=-	=-	=-	=-	=-	=-	=-	=-	=-	=-	=-	=-	=-	=-	=-	=-	=-	=-	=-	=-	=-	=-
*	*	*	*	*	*	*	*	*	*	*	*	*	*	*	*	*	*	*	*	*	*	*above	*
*	*	*	*	*	*	*	*	*	*color:red	*	*	*	*color:red	*	*	*	*color:red	*	*	*	*	*color:red	*
!	!	!	!	!	!	!	!	!	!	!	!LO:DY:rj	!	!	!	!LO:DY:rj	!	!	!	!LO:DY:rj	!LO:TX:a:t=Chór	!	!	!LO:DY:rj
8ryy	8ryy	8ryy	.	.	.	.	.	8G\	tal	Tak	pp	8B-\	Tal	Tak	pp	8g/	Tal	Tak	pp	8g/	Tak	Tal	pp
4ryy	4ryy	4ryy	.	.	.	.	.	8G\	i	mu-	.	8B-\	i	mu-	.	8g/	i	mu-	.	8g/	mu-	i	.
.	.	.	.	.	.	.	.	8G\	del	-si	.	8c\	del	-si	.	8g/	del	-si	.	8a/	-si	del	.
*	*v	*v	*	*	*	*	*	*	*	*	*	*	*	*	*	*	*	*	*	*	*	*	*
=5	=5	=5	=5	=5	=5	=5	=5	=5	=5	=5	=5	=5	=5	=5	=5	=5	=5	=5	=5	=5	=5	=5
*	*	*	*	*	*	*	*2\right	*	*	*	*	*	*	*	*	*	*	*	*	*	*	*
1ryy	1ryy	.	1ryy	.	.	.	[2G\	ciel	drę-	.	4d\	cie-	drę-	.	[2g/	ciel	drę-	.	4b-/	drę-	cie-	.
.	.	.	.	.	.	.	.	.	.	.	8B-\	-lo il	-czyć	.	.	.	.	.	8g/	-czyć	-lo il	.
.	.	.	.	.	.	.	.	.	.	.	8B-\	vo-	się,	.	.	.	.	.	8g/	się,	vo-	.
.	.	.	.	.	.	.	8G\]	.	.	.	4e-^\	-le-	drę-	.	8g/]	.	.	.	4cc^\	drę-	-le-	.
.	.	.	.	.	.	.	8G\	vo-	-czyć	.	.	.	.	.	8g/	vo-	-czyć	.	.	.	.	.
.	.	.	.	.	.	.	8G\	-ler	się	.	8d\	-re	-czyć	.	8g/	-ler	się	.	8b-\	-czyć	-re	.
.	.	.	.	.	.	.	8G\	so-	wiek	.	8c\	so-	wiek-	.	8g/	so-	wiek	.	8a\	wiek	so-	.
=6	=6	=6	=6	=6	=6	=6	=6	=6	=6	=6	=6	=6	=6	=6	=6	=6	=6	=6	=6	=6	=6	=6
*	*	*	*	*	*	*	*	*	*	*	*2\right	*	*	*	*	*	*	*	*2\right	*	*	*
1ryy	1ryy	.	1ryy	.	.	.	2G\	-vra-	wie-	.	2d\	-vra-	-wie-	.	2g/	-vra-	wie-	.	2b-\	wie-	-vra-	.
.	.	.	.	.	.	.	8G\	-no-	-kiem,	.	8G/	-no,	-kiem,	.	8g/	-no	-kiem,	.	8g/	-kiem,	-no,	.
.	.	.	.	.	.	.	8r	.	.	.	8r	.	.	.	8r	.	.	.	8r	.	.	.
*	*	*	*	*	*	*	*	*	*	*	*	*	*	*	*	*color:auto	*color:red	*	*	*	*	*
.	.	.	.	.	.	.	8G\	.	spra-	.	8G/	non	spra-	.	8g/	spra-	non	.	8g/	spra-	non	.
.	.	.	.	.	.	.	8G\	.	-wied	.	8G/	r'ha	-wied	.	8g/	-wied-	r'ha	.	8g/	-wied-	r'ha	.
!!LO:LB:g=original
=7	=7	=7	=7	=7	=7	=7	=7	=7	=7	=7	=7	=7	=7	=7	=7	=7	=7	=7	=7	=7	=7	=7
*	*	*	*	*	*	*	*^	*	*	*	*^	*	*	*	*^	*	*	*	*^	*	*	*
*	*	*	*	*	*	*	*	*	*color:auto	*	*	*	*	*color:auto	*color:red	*	*	*	*	*	*	*	*	*	*below	*
1ryy	1ryy	.	1ryy	.	.	.	4F\	2ryy	-li-	.	.	4c\	2ryy	li-	po-	.	4f'/	2ryy	-li	.	.	4a-X/	2.ryy	-li-	po-	.
*	*	*	*	*	*	*	*	*	*ij	*	*	*	*	*ij	*	*	*	*	*ij	*	*	*	*	*	*	*
.	.	.	.	.	.	.	8F\	.	-we	.	.	8c\	.	-we	-sa	.	8f/	.	we	.	.	8a-/	.	-we	-sa	.
.	.	.	.	.	.	.	8F\	.	zrzą-	.	.	8c\	.	zrzą-	nè	.	8f/	.	zrzą-	.	.	8a-/	.	zrzą-	nè	.
.	.	.	.	.	.	.	4E-\	4ryy	-dze-	.	.	4c\	4ryy	-dze-	fi-	.	4g/	4ryy	-dze-	.	.	4cc\	.	-dze-	fi-	.
.	.	.	.	.	.	.	8E-\@	4E-\	-nia	.	.	8c\@	4c\	-nia	-ne a'	.	8g/@	4g/	-nia	.	.	4cc\	8cc\@	-nia	-ne a'	.
.	.	.	.	.	.	.	8E-\@	.	.	.	.	8c\@	.	.	suoi-	.	8g/@	.	.	.	.	.	8cc\@	.	suoi	.
*	*	*	*	*	*	*	*v	*v	*	*	*	*	*	*	*	*	*v	*v	*	*	*	*v	*v	*	*	*
*	*	*	*	*	*	*	*	*	*	*	*v	*v	*	*	*	*	*	*	*	*	*	*	*
=8	=8	=8	=8	=8	=8	=8	=8	=8	=8	=8	=8	=8	=8	=8	=8	=8	=8	=8	=8	=8	=8	=8
1ryy	1ryy	.	1ryy	.	.	.	(4D\	bo-	.	.	(4c\	bo-	-ma-	.	(4a-X/	bo-	.	.	2ff\	bo-	ma-	.
.	.	.	.	.	.	.	4G\)	.	.	.	4Bn\)	.	-[[li]]-	.	4g/)	.	.	.	.	.	.	.
.	.	.	.	.	.	.	8C\	-że!	.	.	8c\	-że!	-li.	.	8g/	-że!	.	.	8ee-\	-że!	-li	.
.	.	.	.	.	.	.	8r	.	.	.	8r	.	.	.	8r	.	.	.	8r	.	.	.
.	.	.	.	.	.	.	8.c^>\	bo	.	.	8.f#X^\	bo	chi	.	8.an^</	bo	.	.	8.ee-^\	bo	chi	.
.	.	.	.	.	.	.	16c\	kto	.	.	16f#\	kto	non	.	16a/	kto	.	.	16dd\	kto	non	.
=9	=9	=9	=9	=9	=9	=9	=9	=9	=9	=9	=9	=9	=9	=9	=9	=9	=9	=9	=9	=9	=9	=9
1ryy	1ryy	.	1ryy	.	.	.	4B-^>\	nie	.	.	4f#X^\	nie	eb-	.	4a^/	nie	.	.	4dd^\	nie	eb-	.
.	.	.	.	.	.	.	8B-\	był	.	.	8g\	był	-be um	.	8g/	był	.	.	8g/	był	-be um	.
.	.	.	.	.	.	.	8B-\	ni	.	.	8e-\	ni	sol	.	8g/	ni	.	.	8g/	ni	sol	.
.	.	.	.	.	.	.	4B-\	ra-	.	.	4e-\	ra-	di	.	4g/	ra-	.	.	4cc\	ra-	di	.
.	.	.	.	.	.	.	8A\	-zu	.	.	8e-\	-zu	sen-	.	8f#X/	-zu	.	.	8cc\	-zu	sen-	.
.	.	.	.	.	.	.	8G\	czło	.	.	8e-\	czło	-so u	.	8g/	czło	.	.	8cc\	czło-	-so u	.
*	*	*	*	*	*	*	*	*Xij	*	*	*	*Xij	*	*	*	*Xij	*	*	*	*	*	*
!!LO:PB:g=original
=10	=10	=10	=10	=10	=10	=10	=10	=10	=10	=10	=10	=10	=10	=10	=10	=10	=10	=10	=10	=10	=10	=10
*	*	*	*	*	*	*	*	*	*	*	*^	*	*	*	*	*	*	*	*^	*	*	*
*	*	*	*	*	*	*	*	*	*	*	*	*	*color:red	*color:auto	*	*	*	*	*	*	*	*	*	*
1ryy	1ryy	.	1ryy	.	.	.	(4.F#X\	wie-	.	.	2e-\	2ryy	ma-	wie-	.	2a^>/	wie-	.	.	2cc^/	2cc\	-wie-	ma-	.
.	.	.	.	.	.	.	8A\)	.	.	.	.	.	.	.	.	.	.	.	.	.	.	.	.	.
*	*	*	*	*	*	*	*	*ij	*	*	*	*	*	*ij	*	*	*ij	*	*	*	*	*	*	*
.	.	.	.	.	.	.	8D\	-kiem,	.	.	8d\	4ryy	-no.	-kiem,	.	8f#X/	-kiem,	.	.	8a/	8a\	-kiem,	-na,	.
.	.	.	.	.	.	.	8r	.	.	.	8r	.	.	.	.	8r	.	.	.	8r	8ryy	.	.	.
!	!	!	!	!	!	!	!	!	!	!	!	!	!	!	!	!	!	!	!	!	!	!	!	!LO:DY:a
.	.	.	.	.	.	.	8G\ 8GG\	te-	.	.	8B-/	8G\	nul-	te-	.	8g/	te-	.	.	8b-/	8g\	te-	nul-	pp
.	.	.	.	.	.	.	8G\ 8GG\	-mu	.	.	8c/	8A\	-la	-mu	.	8g/	-mu	.	.	8cc/	8a\	-mu	-la	.
=11	=11	=11	=11	=11	=11	=11	=11	=11	=11	=11	=11	=11	=11	=11	=11	=11	=11	=11	=11	=11	=11	=11	=11	=11
1ryy	1ryy	.	1ryy	.	.	.	4G\ 4GG\	czło-	.	.	4.d/	4.B-\	può	czło-	.	4g/	czło-	.	.	4.dd/	4.b-\	czło-	può	.
.	.	.	.	.	.	.	4G\ 4GG\	-wiek	.	.	.	.	.	.	.	4g/	-wiek	.	.	.	.	.	.	.
.	.	.	.	.	.	.	.	.	.	.	8d/	8B-\	spe-	-wiek	.	.	.	.	.	8dd/	8b-\	-wiek	spe-	.
.	.	.	.	.	.	.	4G\ 4GG^\	nic	.	.	4f/	4d^\	-rar	nic	.	4g^>/	nic	.	.	4ff^/	4dd\	nic	-rar	.
.	.	.	.	.	.	.	8.G\ 8.GG\	nie	.	.	8.e-/	8.c\	dai	nie	.	8.g/	nie	.	.	8.ee-/	8.cc\	nie	dai	.
.	.	.	.	.	.	.	16G\ 16GG\	po-	.	.	16d/	16B-\	mor-	po-	.	16g/	po-	.	.	16dd/	16b-\	po-	mor-	.
=12	=12	=12	=12	=12	=12	=12	=12	=12	=12	=12	=12	=12	=12	=12	=12	=12	=12	=12	=12	=12	=12	=12	=12	=12
*	*	*	*	*	*	*	*^	*	*	*	*	*	*	*	*	*	*	*	*	*	*	*	*	*
1ryy	1ryy	.	1ryy	.	.	.	2G/	2G\	-mo-	.	.	2d/	2B-\	-ta-	-mo-	.	2d/	-mo-	.	.	(2dd/	2b-\	-mo-	-ta-	.
.	.	.	.	.	.	.	8G/	8G\	-że	.	.	8B-/	8B-\	-li,	-że,	.	8d/	-że,	.	.	8b-/)	8g\	-że,	-li,	.
.	.	.	.	.	.	.	8r	8ryy	.	.	.	8r	8ryy	.	.	.	8r	.	.	.	8r	8ryy	.	.	.
!	!	!	!	!	!	!	!	!	!	!	!LO:DY:a	!	!	!	!	!LO:DY:a	!	!	!	!LO:DY:a	!	!	!	!	!LO:DY:a
.	.	.	.	.	.	.	8G/	8G\	te-	.	pp	8B-\	4ryy	nul-	te-	pp	8d/	te-	.	pp	8b-/	8b-\	te-	nul-	pp
.	.	.	.	.	.	.	8G-X/	8G-\	-mu	.	.	8B-\	.	-la	-mu	.	8e-/	-mu	.	.	8cc/	8cc\	-mu	-la	.
*	*	*	*	*	*	*	*	*	*Xij	*	*	*	*	*	*Xij	*	*	*Xij	*	*	*	*	*	*	*
*	*	*	*	*	*	*	*	*	*	*	*	*	*	*	*	*	*	*	*	*	*v	*v	*	*	*
!!LO:LB:g=original
=13	=13	=13	=13	=13	=13	=13	=13	=13	=13	=13	=13	=13	=13	=13	=13	=13	=13	=13	=13	=13	=13	=13	=13	=13
*	*	*	*	*	*	*	*	*^	*	*	*	*	*	*	*	*	*	*	*	*	*	*	*	*
*	*	*	*	*	*	*	*	*	*	*	*	*	*	*	*color:auto	*color:red	*	*	*	*	*	*	*	*	*
1ryy	1ryy	.	1ryy	.	.	.	4.F/	4.F\	2ryy	czło-	.	.	4.B-\	2ryy	czło-	può	.	4f/	czło-	.	.	4dd\	czło-	può	.
.	.	.	.	.	.	.	.	.	.	.	.	.	.	.	.	.	.	4d/	-wiek	.	.	4b-\	-wiek	spe-	.
.	.	.	.	.	.	.	8F/	8F\	.	-wiek	.	.	8B-\	.	-wiek	spe-	.	.	.	.	.	.	.	.	.
.	.	.	.	.	.	.	4.F/	4.F\	4ryy	nie	.	.	4B-/	4B-\	nic	-rar	.	4g/	nic	.	.	4ee-\	nic	-rar	.
.	.	.	.	.	.	.	.	.	8F\@	.	.	.	8A/	8A\	nie	dai	.	8f/	nie	.	.	8dd\	nie	dai	.
.	.	.	.	.	.	.	8F/	8F\	8ryy	po-	.	.	8f\ 8F\	8ryy	po-	mor-	.	8e-/	po-	.	.	8cc\	po-	mor-	.
*	*	*	*	*	*	*	*v	*v	*v	*	*	*	*	*	*	*	*	*	*	*	*	*	*	*	*
=14	=14	=14	=14	=14	=14	=14	=14	=14	=14	=14	=14	=14	=14	=14	=14	=14	=14	=14	=14	=14	=14	=14	=14
1ryy	1ryy	.	1ryy	.	.	.	1BB-/	-mo-	.	.	(1f/	(1F\	-mo-	-ta-	.	1d/	-mo-	.	.	1b-\	-mo-	-ta-	.
=15	=15	=15	=15	=15	=15	=15	=15	=15	=15	=15	=15	=15	=15	=15	=15	=15	=15	=15	=15	=15	=15	=15	=15
1ryy	1ryy	.	1ryy	.	.	.	4BB-/	-że.	.	.	4d/)	4B-\)	-że.	-li	.	4d/	-że.	.	.	4b-\	-że.	-li	.
.	.	.	.	.	.	.	4r	.	.	.	4r	4ryy	.	.	.	4r	.	.	.	4r	.	.	.
.	.	.	.	.	.	.	2r	.	.	.	2r	2ryy	.	.	.	2r	.	.	.	2r	.	.	.
*	*	*	*	*	*	*	*	*	*	*	*v	*v	*	*	*	*	*	*	*	*	*	*	*
!!LO:LB:g=original
=16|!	=16|!	=16|!	=16|!	=16|!	=16|!	=16|!	=16|!	=16|!	=16|!	=16|!	=16|!	=16|!	=16|!	=16|!	=16|!	=16|!	=16|!	=16|!	=16|!	=16|!	=16|!	=16|!
*k[b-]	*k[b-]	*	*k[b-]	*	*	*	*k[b-]	*	*	*	*k[b-]	*	*	*	*k[b-]	*	*	*	*k[b-]	*	*	*
*M3/4	*M3/4	*	*M3/4	*	*	*	*M3/4	*	*	*	*M3/4	*	*	*	*M3/4	*	*	*	*M3/4	*	*	*
*	*	*	*	*	*color:red	*	*	*	*	*	*	*	*	*	*	*	*	*	*	*	*	*
2.r	(8d/L	.	8D\	a	Ma	.	2.r	.	.	.	2.r	.	.	.	2.r	.	.	.	2.r	.	.	.
.	8f/J	.	8F\	kto	chi è	.	.	.	.	.	.	.	.	.	.	.	.	.	.	.	.	.
.	4.a/	.	4.A\	pro-	sor-	.	.	.	.	.	.	.	.	.	.	.	.	.	.	.	.	.
.	8g/	.	8G\	-źby	-do al-	.	.	.	.	.	.	.	.	.	.	.	.	.	.	.	.	.
=17	=17	=17	=17	=17	=17	=17	=17	=17	=17	=17	=17	=17	=17	=17	=17	=17	=17	=17	=17	=17	=17	=17
*	*	*^	*	*	*	*	*	*	*	*	*	*	*	*	*	*	*	*	*	*	*	*
4r	8f/L	.	.	8F\	nie	-la	.	2.r	.	.	.	2.r	.	.	.	2.r	.	.	.	2.r	.	.	.
.	8d/J)	.	.	8D\	po-	mia	.	.	.	.	.	.	.	.	.	.	.	.	.	.	.	.	.
!	!	!LO:HP:a	!	!	!	!	!	!	!	!	!	!	!	!	!	!	!	!	!	!	!	!	!
(4E\	(4e/	>	>	4E\	-słu-	vo-	.	.	.	.	.	.	.	.	.	.	.	.	.	.	.	.	.
8AA/)	8A/)	]	]	8AA/	-cha,	-ce,	.	.	.	.	.	.	.	.	.	.	.	.	.	.	.	.	.
8r	8r	.	.	8r	.	.	.	.	.	.	.	.	.	.	.	.	.	.	.	.	.	.	.
*	*	*v	*v	*	*	*	*	*	*	*	*	*	*	*	*	*	*	*	*	*	*	*	*
=18	=18	=18	=18	=18	=18	=18	=18	=18	=18	=18	=18	=18	=18	=18	=18	=18	=18	=18	=18	=18	=18	=18
2.r	(8d/L	.	8D\	w I-	ce-	<	2.r	.	.	.	2.r	.	.	.	2.r	.	.	.	2.r	.	.	.
.	8f/J	.	8F\	-mie	-de-	.	.	.	.	.	.	.	.	.	.	.	.	.	.	.	.	.
.	4.a/	.	4.A\	Oj-	-rà	[ >	.	.	.	.	.	.	.	.	.	.	.	.	.	.	.	.
.	8g/	.	8G\	-ca,	man-	]	.	.	.	.	.	.	.	.	.	.	.	.	.	.	.	.
=19	=19	=19	=19	=19	=19	=19	=19	=19	=19	=19	=19	=19	=19	=19	=19	=19	=19	=19	=19	=19	=19	=19
4r	8f/L	.	8F\	Sy-	-zi	.	2.r	.	.	.	2.r	.	.	.	2.r	.	.	.	2.r	.	.	.
.	8d/J)	.	8D\	-na,	la	.	.	.	.	.	.	.	.	.	.	.	.	.	.	.	.	.
(4E\	(4e/	>	4E\	Du-	cro-	.	.	.	.	.	.	.	.	.	.	.	.	.	.	.	.	.
8AA/)	8A/)	]	8AA/	-cha!	-ce	.	.	.	.	.	.	.	.	.	.	.	.	.	.	.	.	.
!LO:TX:b:t=V&colon;S&colon;	!	!	!	!	!	!	!	!	!	!	!	!	!	!	!	!	!	!	!	!	!	!
8r	8r	.	8r	.	.	.	.	.	.	.	.	.	.	.	.	.	.	.	.	.	.	.
!!LO:PB:g=original
=20	=20	=20	=20	=20	=20	=20	=20	=20	=20	=20	=20	=20	=20	=20	=20	=20	=20	=20	=20	=20	=20	=20
!	!	!	!	!	!	!	!	!	!	!	!	!	!	!	!	!	!	!	!LO:TX:a:t=Chór	!	!	!
4D/ 4DD^/	4d^/	.	2.ryy	.	.	.	8r	.	.	.	8r	.	.	.	8r	.	.	.	8r	.	.	.
!	!	!	!	!	!	!	!	!	!	!LO:DY:a	!	!	!	!LO:DY:a	!	!	!	!LO:DY:a	!	!	!	!LO:DY:a
.	.	.	.	.	.	.	8D\	czy	.	<	8D/	czy	.	<	8d/	czy	.	<	8d/	czy	del	<
*	*	*	*	*	*	*	*	*ij	*	*	*	*ij	*	*	*	*ij	*	*	*	*	*	*
!	!LO:TX:b:t=crescendo_:ext=ud:problem=text with extension lines	!LO:HP:b:t=crescendo_	!	!	!	!	!	!	!	!	!	!	!	!	!	!	!	!	!	!	!	!
8E^\L	8e^/L	<	.	.	.	.	8E\	wi-	.	.	8E/	wi-	.	.	8e/	wi-	.	.	8e/	wi-	dan-	.
8F^\	8f^/	.	.	.	.	.	8F\	-dzisz	.	.	8F/	-dzisz	.	.	8f/	-dzisz	.	.	8f/	-dzisz	-te	.
8G^\	8g^/	.	.	.	.	.	8G\	pań-	.	.	8G/	pań-	.	.	8g/	pań-	.	.	8g/	pań-	<..-	.
8A^\J	8a^/J	[	.	.	.	.	8A\	-ski	.	[	8A/	-ski	.	[	8a/	-ski	.	[	8a/	-ski	-...>-	[
=21	=21	=21	=21	=21	=21	=21	=21	=21	=21	=21	=21	=21	=21	=21	=21	=21	=21	=21	=21	=21	=21	=21
*	*	*	*	*	*	*	*	*	*	*	*	*	*	*	*2\right	*	*	*	*	*	*	*
!	!	!LO:DY:rj:t=fp.	!	!	!	!	!	!	!	!LO:DY:rj:t=fp.	!	!	!	!LO:DY:rj:t=fp.	!	!	!	!LO:DY:rj:t=fp.	!	!	!	!LO:DY:rj:t=fp.
N(<2.B-\	(2.b-\	fp	2.ryy	.	.	.	[2.B-\	krzyż?	.	fp	[2.B-\	krzyż?	.	fp	[2.b-\	krzyż?	.	fp	[2.b-\	krzyż?	-lar!	fp
*	*	*	*	*	*	*	*	*Xij	*	*	*	*Xij	*	*	*	*Xij	*	*	*	*	*	*
=22	=22	=22	=22	=22	=22	=22	=22	=22	=22	=22	=22	=22	=22	=22	=22	=22	=22	=22	=22	=22	=22	=22
!	!	!	!LO:DY:rj	!	!	!	!	!	!	!	!	!	!	!	!	!	!	!	!	!	!	!
(>4D/ 4DD/	(>4a-X/ 4f/ 4B-/)N)	pp	2.ryy	.	.	.	2.B-\_	.	.	.	2.B-\_	.	.	.	2.b-\_	.	.	.	2.b-\_	.	.	.
4E-X/ 4EE-X/	4g/ 4B-/	.	.	.	.	.	.	.	.	.	.	.	.	.	.	.	.	.	.	.	.	.
4D-X/ 4DD-X/	4f/ 4B-/	.	.	.	.	.	.	.	.	.	.	.	.	.	.	.	.	.	.	.	.	.
=23	=23	=23	=23	=23	=23	=23	=23	=23	=23	=23	=23	=23	=23	=23	=23	=23	=23	=23	=23	=23	=23	=23
!LO:ART:color=blue	!LO:ART:color=blue	!	!	!	!	!	!LO:ART:color=blue	!	!	!	!LO:ART:color=blue	!	!	!	!LO:ART:color=blue	!	!	!	!LO:ART:color=blue	!	!	!
2.C/ 2.CC;</)	2.en/ 2.B-/ 2.G;/)	.	2.ryy	.	.	.	2B-;\]	.	.	.	2B-;\]	.	.	.	2b-;\]	.	.	.	2b-;\]	.	.	.
.	.	.	.	.	.	.	4r	.	.	.	4r	.	.	.	4r	.	.	.	4r	.	.	.
!!LO:LB:g=original
=24	=24	=24	=24	=24	=24	=24	=24	=24	=24	=24	=24	=24	=24	=24	=24	=24	=24	=24	=24	=24	=24	=24
*	*	*	*	*	*	*	*^	*	*	*	*	*	*	*	*	*	*	*	*	*	*	*
!	!	!LO:DY:rj	!	!	!	!	!	!	!	!	!LO:DY:b:rj	!	!	!	!LO:DY:rj	!LO:TX:t=P:problem=tekst włoski bardzo nieczytelny	!	!	!LO:DY:rj	!	!	!	!LO:DY:rj
4FF/	4f/ 4A/ 4F/	p	2.ryy	.	.	.	4A\	4ryy	nie	.	p	4A/	nie	.	p	4a/	nie	se	p	4a/	nie	.	p
*	*	*	*	*	*	*	*	*	*ij	*	*	*	*ij	*	*	*	*ij	*	*	*	*	*	*
!	!LO:S:s=2:note:problem=note-level slur	!	!	!	!	!	!LO:SIC:v:s=8E\	!	!	!	!	!	!	!	!	!	!	!	!	!	!	!	!
(4AA/	(4e/ (>4c#X/ 4A/	.	.	.	.	.	8D\	8E\j	bie-	.	.	8E/	bie-	.	.	8e/	bie-	l'in-	.	8e/	bie-	.	.
!	!	!	!	!	!	!	!LO:SIC:v:s=8G\	!	!	!	!	!	!	!	!	!	!	!	!	!	!	!	!
.	.	.	.	.	.	.	8F\	8G\j	-rzesz	.	.	8G/	-rzesz	.	.	8g/	-rzesz	-can-	.	8g/	-rzesz	.	.
!	!	!	!	!	!	!	!LO:SIC:v:s=4F\	!	!	!	!	!	!	!	!	!	!	!	!	!	!	!	!
4D/)	4f/) 4d/) 4A/	.	.	.	.	.	4E\	4F\j	ja-	.	.	4F/	ja-	.	.	4f/	ja-	-te	.	4f/	ja-	.	.
*	*	*	*	*	*	*	*v	*v	*	*	*	*	*	*	*	*	*	*	*	*	*	*	*
=25	=25	=25	=25	=25	=25	=25	=25	=25	=25	=25	=25	=25	=25	=25	=25	=25	=25	=25	=25	=25	=25	=25
(<[4G\ 4GG\	(4d/ 4Bn/	.	2.ryy	.	.	.	8D\	-dła,	.	.	8D/	-dła,	.	.	8d/	-dła,	si-	.	8d/	-dła,	.	.
.	.	.	.	.	.	.	8F\	na-	.	.	8F/	na-	.	.	8f/	na-	-mo e-	.	8f/	na-	.	.
(4G\] (4C\)	4e/ [4c/)	.	.	.	.	.	4E\	-ko-	.	.	4E/	-po-	.	.	4e/	-po-	-na-	.	(4e/	-po-	.	.
4A\ 4F\))	4f/ 4c/]	.	.	.	.	.	8AA/	-ju,	.	.	8A/	-ju,	.	.	8A/	-ju,	-ro	.	8A/)	-ju,	.	.
.	.	.	.	.	.	.	8r	.	.	.	8r	.	.	.	8r	.	.	.	8r	.	.	.
=26	=26	=26	=26	=26	=26	=26	=26	=26	=26	=26	=26	=26	=26	=26	=26	=26	=26	=26	=26	=26	=26	=26
4AA/	4a/ 4e/ 4c/	.	2.ryy	.	.	.	4A\	zos-	.	.	4A/	zos-	.	.	4a/	zos-	par-	.	4a/	zo-	.	.
(<4C/	(>4g/ 4e/ 4c/	.	.	.	.	.	8E\	-taw-	.	.	8E/	-taw-	.	.	8e/	-taw-	-ti-	.	8e/	-staw-	.	.
.	.	.	.	.	.	.	8G\	-że	.	.	8G/	-że	.	.	8g/	-że	-ta	.	8g/	-że	.	.
4D\)	4f/ 4d/ 4A/)	.	.	.	.	.	4F\	nas	.	.	4F/	nas	.	.	4f/	nas	noi	.	4f/	nas	.	.
=27	=27	=27	=27	=27	=27	=27	=27	=27	=27	=27	=27	=27	=27	=27	=27	=27	=27	=27	=27	=27	=27	=27
*	*^	*	*	*	*	*	*	*	*	*	*	*	*	*	*	*	*	*	*	*	*	*
(4BB-\	(>4f/ 4d/ [>4B-</	2ryy	.	2.ryy	.	.	.	8D\L	w po-	.	.	8D/L	w po-	.	.	8d/L	w po-	lo-	.	8d/L	w po-	.	.
.	.	.	.	.	.	.	.	8F\J	.	.	.	8F/J	.	.	.	8f/J	.	.	.	8f/J	.	.	.
4GG\)	4e/ 4d/ 4B-</)]	.	.	.	.	.	.	4E\	-ko-	.	.	4E/	-ko-	.	.	4e/	-ko-	-ta-	.	4e/	-ko-	.	.
4AA\	4e/ 4d/ 4A/	(<8A</L	.	.	.	.	.	8AA/	-ju!/	.	.	8A/	-ju!/	.	.	8A/	-ju!	-no,	.	8A/	-ju!	.	.
.	.	8G</J)	.	.	.	.	.	8r	.	.	.	8r	.	.	.	8r	.	.	.	8r	.	.	.
*	*v	*v	*	*	*	*	*	*	*	*	*	*	*	*	*	*	*	*	*	*	*	*	*
!!LO:PB:g=original
=28	=28	=28	=28	=28	=28	=28	=28	=28	=28	=28	=28	=28	=28	=28	=28	=28	=28	=28	=28	=28	=28	=28
*	*	*	*	*	*	*	*^	*	*	*	*^	*	*	*	*^	*	*	*	*^	*	*	*
*	*	*	*	*	*	*	*	*^	*	*	*	*	*	*	*	*	*	*	*	*	*	*	*	*	*	*
*	*	*	*	*	*	*	*	*	*^	*	*	*	*	*	*	*	*	*	*	*	*	*	*	*	*	*	*
!	!	!	!	!	!	!	!	!	!	!	!	!	!	!	!	!	!	!	!LO:ACC:color=blue	!LO:ACC:color=blue	!	!	!	!	!	!	!	!
8F#X\ 8D\	8d/ 8cn/ 8A</	.	2.ryy	.	.	.	8D/	8D/	8D\	8D\	a	.	.	8.A/@	8A/	a	.	.	8f#X/	8f#/	a	.	.	8.dd\@	8dd\	a	va-	.
8r	8r	.	.	.	.	.	16ryy	8r	16ryy	8r	.	.	.	.	8r	.	.	.	8f#/@	8r	.	.	.	.	8r	.	.	.
.	.	.	.	.	.	.	16D/@	.	16D\@	.	.	.	.	16A/@	.	.	.	.	.	.	.	.	.	16dd\@	.	.	-me	.
!	!LO:ACC:color=grey	!LO:DY:b=2	!	!	!	!	!	!	!	!	!	!	!	!	!	!	!	!	!	!	!	!	!	!	!	!	!	!
!	!	!	!	!	!	!	!	!	!	!	!	!	!	!	!	!	!	!	!	!LO:ACC:color=blue	!	!	!	!	!	!	!	!
4r	2d/ 2Bn/ 2G</ 2F</ 2D^</	pp	.	.	.	.	2D/ 2GG^/	2ryy	2ryy	2ryy	kysz!	.	.	2Bn^\	2ryy	kysz!	.	.	2fn^/	2ryy	kysz!	.	.	2g^/	2ryy	kysz!	fuor!	.
8.GGG/L	.	.	.	.	.	.	.	.	.	.	.	.	.	.	.	.	.	.	.	.	.	.	.	.	.	.	.	.
16GGG/Jk	.	.	.	.	.	.	.	.	.	.	.	.	.	.	.	.	.	.	.	.	.	.	.	.	.	.	.	.
=29	=29	=29	=29	=29	=29	=29	=29	=29	=29	=29	=29	=29	=29	=29	=29	=29	=29	=29	=29	=29	=29	=29	=29	=29	=29	=29	=29	=29
8CC/	8c/ 8B-X/ 8G</ 8E</	.	2.ryy	.	.	.	8C/	8C/	8.C\@	8C\	a	.	.	8.c\@	8c\	a	.	.	8.e/@	8e/	a	.	.	8.cc\@	8cc\	a	va-	.
8r	8r	.	.	.	.	.	16ryy	8r	.	8r	.	.	.	.	8r	.	.	.	.	8r	.	.	.	.	8r	.	.	.
.	.	.	.	.	.	.	16C/@	.	16C\@	.	.	.	.	16c\@	.	.	.	.	16e/@	.	.	.	.	16cc\@	.	.	-me	.
4r	2c/ 2A/ 2F<^>/	.	.	.	.	.	2C/ 2FF^/	2ryy	2ryy	2ryy	kysz!	.	.	2A^/	2ryy	kysz!	.	.	2c^>/	2ryy	kysz!	.	.	2f^/	2ryy	kysz!	fuor!	.
8.FFF/L	.	.	.	.	.	.	.	.	.	.	.	.	.	.	.	.	.	.	.	.	.	.	.	.	.	.	.	.
16FFF/Jk	.	.	.	.	.	.	.	.	.	.	.	.	.	.	.	.	.	.	.	.	.	.	.	.	.	.	.	.
=30	=30	=30	=30	=30	=30	=30	=30	=30	=30	=30	=30	=30	=30	=30	=30	=30	=30	=30	=30	=30	=30	=30	=30	=30	=30	=30	=30	=30
!	!	!LO:DY:a:t=ppp	!	!	!	!	!	!	!	!	!	!	!LO:DY:a	!	!	!	!	!LO:DY:a	!	!	!	!	!LO:DY:a	!	!	!	!	!LO:DY:a
8AAA/	8c#X/ 8G</ 8E</	ppp	2.ryy	.	.	.	8AA/	8AA/	8.AA\@	8AA\	a	.	ppp	8.E/@	8E/	a	.	ppp	8.c#X/@	8c#/	a	.	ppp	8.a/@	8a/	a	va-	ppp
8ryy	8ryy	.	.	.	.	.	16ryy	8r	.	8r	.	.	.	.	8r	.	.	.	.	8r	.	.	.	.	8r	.	.	.
.	.	.	.	.	.	.	16AA/@	.	16AA\@	.	.	.	.	16E\@	.	.	.	.	16c#/@	.	.	.	.	16a/@	.	.	-me	.
*	*	*	*	*	*	*	*v	*v	*v	*v	*	*	*	*	*	*	*	*	*v	*v	*	*	*	*v	*v	*	*	*
*	*	*	*	*	*	*	*	*	*	*	*v	*v	*	*	*	*	*	*	*	*	*	*	*
*	*	*	*	*	*	*	*^	*	*	*	*^	*	*	*	*^	*	*	*	*^	*	*	*
*	*	*	*	*	*	*	*	*^	*	*	*	*	*	*	*	*	*	*	*	*	*	*	*	*	*	*
*	*	*	*	*	*	*	*	*	*^	*	*	*	*	*	*	*	*	*	*	*	*	*	*	*	*	*	*
!	!LO:ACC:color=grey	!	!	!	!	!	!	!	!	!	!	!	!	!	!	!	!	!	!	!	!	!	!	!	!	!	!	!
!	!LO:TX:b:t=fine	!	!	!	!	!	!	!	!	!	!	!	!	!	!	!	!	!	!	!	!	!	!	!	!	!	!	!
!	!LO:TX:b:t=(&colon;Widmo znika&colon;)	!	!	!	!	!	!	!	!	!	!	!	!	!	!	!	!	!	!	!	!	!	!	!	!	!	!	!
!LO:TX:t=P:problem=dolna oktawa zaznaczona 8	!LO:TX:b:t=(Lo spettro vanisce):color=red	!	!	!	!	!	!	!	!	!	!	!	!	!	!	!	!LO:TX:b:t=fine	!	!	!	!	!	!	!	!	!	!	!
2AA\ 2DD;<\ 2DDD\	2d/ 2F#X</ 2D<;/	.	.	.	.	.	2D/ 2AA/ 2DD;/	2ryy	2ryy	2ryy	kysz!	.	.	2F#X;</	2ryy	kysz!	.	.	2A;/	2ryy	kysz!	.	.	2d;/	2ryy	kysz!	fuor!	.
*	*	*	*	*	*	*	*v	*v	*v	*v	*	*	*	*	*	*	*	*	*v	*v	*	*	*	*v	*v	*	*	*
*	*	*	*	*	*	*	*	*	*	*	*v	*v	*	*	*	*	*	*	*	*	*	*	*
==	==	==	==	==	==	==	==	==	==	==	==	==	==	==	==	==	==	==	==	==	==	==
*-	*-	*-	*-	*-	*-	*-	*-	*-	*-	*-	*-	*-	*-	*-	*-	*-	*-	*-	*-	*-	*-	*-
!!!system-decoration: [s1,s2,s3,s4][s5][(s6,s7)]
!!!RDF**kern: > = above
!!!RDF**kern: < = below
!!!RDF**dynam: ppp `= ppp.
!!!RDF**dynam: pp = pp.
!!!RDF**dynam: p = p.
!!!RDF**kern: N = link
!!!RDF**kern: @ = marked note, color=red
!!!RDF**kern: j = marked note, color=grey
!!!ENC: Andrzej Gręziak
!!!END: 2021-09-21
!!!EED: Andrzej Borzym
!!!EST: 2021-10-12
